X:1
T:Our Risen Lord
T:Our Risen Lord
T:A. O. Oliver, 1910
T:John Hugh McNaughton (1829-1891)
T:Public Domain Courtesy of the Cyber Hymnal™
T:Public Domain Courtesy of the Cyber Hymnal™
C:A. O. Oliver, 1910
Z:Public Domain
Z:Courtesy of the Cyber Hymnal™
%%score ( 1 2 ) 3
L:1/8
Q:1/4=90
M:4/4
K:F
V:1 treble 
V:2 treble 
V:3 bass 
V:1
 AEG | (z [CF])GA B x3 | z [Fc]dA c x3 | z [EB]cG B x3 | z [FA]AE G x3 | z [CF]GA B x3 | %6
w: 1.~Our ris- en|* Lord a- gain|* we greet, Ra-|* * diant from|* death, and sin|* laid * *|
w: 2.~We hear a-|* gain the an-|* gels say, “The|* * Lord is|* ris’n, He is|* not * *|
w: 3.~O glor- ious|* day that gives|* us back In|* * tri- umph|* clad our bless-|* èd * *|
 z [Fc]dA c x3 | z [EB][CE][CA] [CG] x3 | [CF]6 ||"^Refrain" [Fc]2 | [Ec]3 [EB] [B,D]EAG | %11
w: * low; And, tho’|* * with scars||on|hands and feet, The vic- tor’s|
w: * here”; And far|* * and wide||pro-|claim to- day With joy- ful|
w: * dead! That smiles|* * on graves||and|griefs so black That hope be-|
 (z [CF])cd x4 | (z [Be])[Bd][Ac] [GB] x3 | [FA]4- [FA]ABc | (z [Fd])[FG][FA] [EB] x3 | %15
w: * wreath’s up-|* on His brow.|||
w: * hearts the|* mess- age clear.|* * O bless- èd|* Christ, this *|
w: * fore them|* quails in dread.|||
 c4- [Fc]dcB | z [FA][FA][EG] [EG] x3 | [CF]4- [CF] |] %18
w: |||
w: * East- * er day,|* Vic- tor- ious||
w: |||
V:2
 x3 | F4- C C C x | c4- F F F x | B4- E E E x | A4- F F F x | F4- C C C x | c4- F F F x | %7
 B4- E E E x | x6 || x2 | x8 | (F4- C C C A) | e4 B B B x | x8 | d4- F F F x | F2 E2 x4 | %16
 A4 F F F x | x5 |] %18
V:3
 z3 | z ([F,A,][F,A,][F,A,] [F,A,]) z3 | z ([F,A,][F,A,][F,A,] [F,A,]) z3 | %3
 z ([C,G,][C,G,][C,G,] [C,G,C]) z3 | z ([F,C][F,C][F,C] [F,C]) z3 | %5
 z ([F,A,][F,A,][F,A,] [F,A,]) z3 | z ([F,A,][F,A,][F,A,] [F,A,]) z3 | %7
 z ([C,G,][C,G,][C,G,] [C,G,])[C,G,][C,F,][C,B,] | [F,A,]6 || [F,A,]2 | [C,G,]3 [C,G,] [C,G,] z3 | %11
 z ([F,A,][F,A,][F,A,] [F,A,]) z3 | z ([C,C][C,C][C,C] [C,C]) z3 | z ([F,C][F,C][F,C] [F,C]) z3 | %14
 z ([B,,B,][B,,B,][B,,B,] [B,,B,])[B,D][A,C][G,C] | ([F,A,]2 [G,B,]2 [F,A,]) z3 | %16
 z ([C,C][C,C][C,C] [C,C])[C,C][C,B,][C,B,] | [F,,F,A,]4- [F,,F,A,] |] %18

